X:300
T: Farmer's Lament (The)
N: O'Farrell's Pocket Companion v.4 (Sky ed. p.135)
N: "Irish"
M: 6/8
L: 1/8
R: blank
Q: 80 % "slow"
K: Em
G/A/| B>cB B2 A/G/| A>GE GEE| E2F G>AB| g2 f/e/ f2e|
dB B/A/ B2A| G>AB g2 f/e/| f2e dB A/G/| A2 G/A/ B>cB|
B2 A/G/ A2 G/E/| GEE E2 :|
